icons/outline/flag-cog.svg

<!--
category: Map
tags: [settings, preferences, configure, tweak, adjust, gear, mechanism, options, control, customize]
version: "2.28"
unicode: "fb8e"
-->
<svg
  xmlns="http://www.w3.org/2000/svg"
  width="24"
  height="24"
  viewBox="0 0 24 24"
  fill="none"
  stroke="currentColor"
  stroke-width="2"
  stroke-linecap="round"
  stroke-linejoin="round"
>
  <path d="M12.901 14.702a5.014 5.014 0 0 1 -.901 -.702a5 5 0 0 0 -7 0v-9a5 5 0 0 1 7 0a5 5 0 0 0 7 0v6.5m-14 9.5v-7m14.001 5m-2 0a2 2 0 1 0 4 0a2 2 0 1 0 -4 0m2 -3.5v1.5m0 4v1.5m3.031 -5.25l-1.299 .75m-3.463 2l-1.3 .75m0 -3.5l1.3 .75m3.463 2l1.3 .75" />
</svg>

<!--
category: Map
tags: [settings, preferences, configure, tweak, adjust, gear, mechanism, options, control, customize]
version: "2.28"
unicode: "fb8e"
-->
<svg
  xmlns="http://www.w3.org/2000/svg"
  width="24"
  height="24"
  viewBox="0 0 24 24"
  fill="none"
  stroke="currentColor"
  stroke-width="2"
  stroke-linecap="round"
  stroke-linejoin="round"
>
    <path d="M12.901 14.702a5.014 5.014 0 0 1 -.901 -.702a5 5 0 0 0 -7 0v-9a5 5 0 0 1 7 0a5 5 0 0 0 7 0v6.5M5 21v-7M19.001 19m-2 0a2 2 0 1 0 4 0a2 2 0 1 0 -4 0M19.001 15.5v1.5M19.001 21v1.5M22.032 17.25l-1.299 .75M17.27 20l-1.3 .75M15.97 17.25l1.3 .75M20.733 20l1.3 .75" />
</svg>
